X: 31119
T: Paddy Fahey's
R: jig
M: 6/8
K: Gdorian
DGA ~B3|~c3 d2 g|^fdg gfd|cAG ~F3|
DGA BAG|c=Bc d2 g|^fdg gfd|1 cA^F G2 ^F:|2 cA^F G=Bd||
|:~g2 d ^fga|g^fd ~c3|A_BA ~f3|ag^f de^f|
g2 a =bag|^fdg fdc|=B2 G Adc|1 AG^F G=Bd:|2 AG^F G2 ^F||

